svgs/firefox.svg

<svg width="192" height="192" viewBox="0 0 192 192" fill="none" xmlns="http://www.w3.org/2000/svg">
<path d="M51.9021 43.1429L57.8785 42.611C57.6828 40.4125 56.2959 38.4989 54.2675 37.6288C52.239 36.7587 49.8967 37.0724 48.1688 38.4458L51.9021 43.1429ZM53.7838 64.2857L47.8074 64.8176C48.0021 67.0057 49.377 68.9124 51.3916 69.7882C53.4062 70.664 55.7383 70.3689 57.4712 69.0189L53.7838 64.2857ZM71.0541 50.8312H77.0541C77.0541 48.5387 75.7478 46.4466 73.688 45.4402C71.6283 44.4339 69.1751 44.6891 67.3666 46.098L71.0541 50.8312ZM96 87.3506V93.3506C98.8278 93.3506 101.272 91.3762 101.866 88.6116C102.46 85.847 101.044 83.0426 98.4656 81.8806L96 87.3506ZM70.2476 110.416H64.2476C64.2476 110.994 64.3313 111.57 64.4962 112.124L70.2476 110.416ZM119.027 22L124.395 19.3202C123.576 17.6789 122.051 16.5025 120.255 16.127C118.459 15.7515 116.591 16.2182 115.182 17.3938L119.027 22ZM96 64.2857H90C90 67.5994 92.6863 70.2857 96 70.2857V64.2857ZM129.244 83.5065L128.295 89.431C130.581 89.797 132.873 88.8155 134.186 86.9088C135.499 85.0021 135.597 82.5104 134.44 80.5058L129.244 83.5065ZM111.351 80.6414L112.3 74.7169C109.538 74.2747 106.838 75.7991 105.789 78.3919C104.74 80.9847 105.622 83.9581 107.915 85.5599L111.351 80.6414ZM161 98.8831C161 134.855 131.889 164 96 164V176C138.535 176 173 141.464 173 98.8831H161ZM96 164C60.1108 164 31 134.855 31 98.8831H19C19 141.464 53.4648 176 96 176V164ZM31 98.8831C31 78.2015 40.6172 59.7765 55.6354 47.8399L48.1688 38.4458C30.4061 52.5637 19 74.3925 19 98.8831H31ZM45.9257 43.6748L47.8074 64.8176L59.7602 63.7538L57.8785 42.611L45.9257 43.6748ZM57.4712 69.0189L74.7415 55.5643L67.3666 46.098L50.0964 59.5525L57.4712 69.0189ZM65.0541 50.8312C65.0541 61.8093 66.5127 70.3108 71.4387 77.2493C76.2737 84.0598 83.8254 88.4444 93.5344 92.8207L98.4656 81.8806C88.9854 77.6075 84.0641 74.3038 81.2235 70.3026C78.4738 66.4294 77.0541 60.9959 77.0541 50.8312H65.0541ZM116.865 102.727C116.865 114.284 107.514 123.636 96 123.636V135.636C114.16 135.636 128.865 120.893 128.865 102.727H116.865ZM96 123.636C86.5636 123.636 78.5679 117.352 75.9991 108.707L64.4962 112.124C68.5327 125.71 81.0966 135.636 96 135.636V123.636ZM96 81.3506C92.8319 81.3506 89.3475 82.4645 86.2545 83.8709C83.0247 85.3395 79.633 87.3978 76.5279 89.8489C73.4348 92.2905 70.4579 95.2546 68.2106 98.6021C65.9784 101.927 64.2476 105.965 64.2476 110.416H76.2476C76.2476 109.1 76.7765 107.372 78.1736 105.291C79.5555 103.232 81.5774 101.151 83.963 99.268C86.3365 97.3944 88.9032 95.8488 91.2215 94.7947C93.6767 93.6783 95.3303 93.3506 96 93.3506V81.3506ZM113.659 24.6798C121.834 41.0579 134.851 52.4429 144.353 62.7785C154.066 73.3427 161 83.4607 161 98.8831H173C173 78.9554 163.623 66.0084 153.187 54.6569C142.541 43.0768 131.571 33.6953 124.395 19.3202L113.659 24.6798ZM119.027 22C115.182 17.3938 115.181 17.395 115.179 17.3962C115.179 17.3967 115.177 17.3981 115.176 17.3991C115.173 17.4012 115.171 17.4036 115.167 17.4062C115.161 17.4116 115.153 17.4181 115.144 17.4258C115.126 17.4412 115.102 17.4613 115.073 17.4861C115.015 17.5358 114.935 17.604 114.835 17.6906C114.636 17.8635 114.356 18.1096 114.008 18.425C113.313 19.0554 112.34 19.9653 111.183 21.1245C108.875 23.4364 105.798 26.7745 102.711 30.8973C96.6476 38.9947 90 50.8452 90 64.2857H102C102 54.6613 106.866 45.369 112.316 38.0897C114.986 34.5242 117.666 31.6155 119.675 29.6028C120.677 28.5997 121.503 27.8277 122.067 27.3169C122.348 27.0616 122.564 26.8723 122.702 26.7524C122.771 26.6925 122.82 26.6501 122.849 26.6255C122.864 26.6133 122.873 26.6055 122.877 26.6022C122.879 26.6006 122.879 26.6001 122.878 26.6008C122.878 26.6011 122.877 26.6017 122.876 26.6026C122.876 26.6031 122.875 26.604 122.874 26.6042C122.873 26.6052 122.872 26.6062 119.027 22ZM96 70.2857C107.972 70.2857 118.439 76.7938 124.048 86.5071L134.44 80.5058C126.778 67.2388 112.439 58.2857 96 58.2857V70.2857ZM107.915 85.5599C113.335 89.3467 116.865 95.6227 116.865 102.727H128.865C128.865 91.5433 123.287 81.6614 114.788 75.7229L107.915 85.5599ZM130.193 77.582L112.3 74.7169L110.403 86.5659L128.295 89.431L130.193 77.582Z" fill="black"/>
</svg>

<svg width="192" height="192" fill="none" xmlns="http://www.w3.org/2000/svg"><path d="m51.902 43.143 5.977-.532a6 6 0 0 0-9.71-4.165l3.733 4.697zm1.882 21.143-5.977.532a6 6 0 0 0 9.664 4.2l-3.687-4.732zm17.27-13.455h6a6 6 0 0 0-9.687-4.733l3.687 4.733zM96 87.351v6a6 6 0 0 0 2.466-11.47L96 87.35zm-25.752 23.065h-6c0 .578.083 1.154.248 1.708l5.752-1.708zM119.027 22l5.368-2.68a5.998 5.998 0 0 0-9.213-1.926L119.027 22zM96 64.286h-6a6 6 0 0 0 6 6v-6zm33.244 19.22-.949 5.925a6 6 0 0 0 6.145-8.925l-5.196 3zm-17.893-2.865.949-5.924a6 6 0 0 0-4.385 10.843l3.436-4.919zM161 98.883C161 134.855 131.889 164 96 164v12c42.535 0 77-34.536 77-77.117h-12zM96 164c-35.89 0-65-29.145-65-65.117H19C19 141.464 53.465 176 96 176v-12zM31 98.883c0-20.681 9.617-39.106 24.635-51.043l-7.466-9.394C30.406 52.564 19 74.393 19 98.883h12zm14.926-55.208 1.881 21.143 11.953-1.064L57.88 42.61l-11.953 1.064zM57.47 69.019l17.27-13.455-7.374-9.466-17.27 13.455 7.374 9.466zm7.583-18.188c0 10.978 1.459 19.48 6.385 26.418 4.835 6.81 12.386 11.195 22.095 15.572l4.932-10.94c-9.48-4.273-14.402-7.577-17.242-11.578-2.75-3.874-4.17-9.307-4.17-19.472h-12zm51.811 51.896c0 11.557-9.351 20.909-20.865 20.909v12c18.16 0 32.865-14.743 32.865-32.909h-12zM96 123.636c-9.436 0-17.432-6.284-20-14.929l-11.504 3.417c4.037 13.586 16.6 23.512 31.504 23.512v-12zm0-42.285c-3.168 0-6.653 1.114-9.746 2.52-3.23 1.469-6.621 3.527-9.726 5.978-3.093 2.441-6.07 5.406-8.317 8.753-2.233 3.325-3.963 7.363-3.963 11.814h12c0-1.316.528-3.044 1.926-5.125 1.381-2.059 3.403-4.14 5.789-6.023 2.374-1.874 4.94-3.42 7.259-4.473C93.677 93.678 95.33 93.35 96 93.35v-12zm17.659-56.671c8.175 16.378 21.192 27.763 30.694 38.099C154.066 73.343 161 83.46 161 98.882h12c0-19.928-9.377-32.875-19.813-44.226-10.646-11.58-21.616-20.962-28.792-35.337l-10.736 5.36zm5.368-2.68c-3.845-4.606-3.846-4.605-3.848-4.604l-.003.003-.009.007-.023.02-.071.06-.238.205c-.199.172-.479.419-.827.734-.695.63-1.668 1.54-2.825 2.7a92.319 92.319 0 0 0-8.472 9.772C96.648 38.995 90 50.845 90 64.286h12c0-9.625 4.866-18.917 10.316-26.196a80.385 80.385 0 0 1 7.359-8.487 66.952 66.952 0 0 1 2.392-2.286 37.728 37.728 0 0 1 .782-.692l.028-.023.001-.001-.002.002-.002.001c-.001.001-.002.002-3.847-4.604zM96 70.286c11.972 0 22.439 6.508 28.048 16.221l10.392-6.001c-7.662-13.267-22.001-22.22-38.44-22.22v12zm11.915 15.274c5.42 3.787 8.95 10.063 8.95 17.167h12c0-11.184-5.578-21.066-14.077-27.004l-6.873 9.837zm22.278-7.978L112.3 74.717l-1.897 11.849 17.892 2.865 1.898-11.849z" fill="#000"/></svg>
